!!!COM: Ulenberg, Caspar
!!!CDT: 1548/12/24-1617/02/16
!!!OPR: Die Psalmen Davids
!!!ONM: 6
!!!ONM-carmgen: 6
!!!OTL@@LA: Domine ne in furore
!!!OTL-incipit@@DE: Straff mich Herr nicht im eiffermůt
**kern	**text
*Ivox	*
*clefC4	*
*k[]	*
*M2/1	*
*met(C|)	*
*MM180	*
=-	=-
1E	Straff
2E	mich
2E	Herr
=-	=-
2G	nicht
2G	im
2F	eif-
2F	-fer-
=-	=-
1E	mut/
1r	.
=-	=-
1E	Wenn
2A	dein
2A	zorn
=-	=-
2G	grau-
2F	-sam
2E	bren-
2D	-nen
=-	=-
1E	thut
1r	.
=-	=-
1G	Züch-
2A	-tig
2A	mich
=-	=-
2B	nicht
2G	im
1c	grim-
=-	=-
1c	-men
1B	dein/
=-	=-
1r	.
1G	Nach
=-	=-
1A	viel
1c	ge-
=-	=-
2B	-tha-
2A	-nen
2A	fün-
2G	-den
=-	=-
1A	mein/
1r	.
=-	=-
1A	Er-
2G	-barm
2E	dich
=-	=-
2F	mein
2G	du
1E	form-
=-	=-
1D	-mer
1C	Got/
=-	=-
1r	.
1G	In
=-	=-
2A	die-
2B	-sen
2c	eng-
2A	-sten
=-	=-
1G	mei-
1F	-ner
=-	=-
0Ell;	not.
==	==
*-	*-
!!!RDF**kern: l = terminal long
!!!RDF**kern: i = editorial accidental
!!!AGN: Psalm
!!!YOR: https://mdz-nbn-resolving.de/details:bsb11116252
!!!YOO: München, Bayerische Staatsbibliothek
!!!URL-scan: https://www.digitale-sammlungen.de/de/view/bsb11116252?page=69
!!!IIIF: https://api.digitale-sammlungen.de/iiif/presentation/v2/bsb11116252/manifest
!!!EED: Wolfgang Drescher
!!!END: 2023/01/04
!!!ENC: Wolfgang Drescher
!!!EEV: 2023/02/04
!!!title: @{ONM}. @{OTL} / <i>@{OTL-incipit@@DE}</i>